src/assets/Imgs/proposal/rightArrow.svg

<svg fill="none" height="18" viewBox="0 0 18 18" width="18" xmlns="http://www.w3.org/2000/svg"><path d="m14.2355 8.26065-7.75729-7.757751c-.35675-.35673-.93502-.35673-1.29175 0-.35673.356731-.35673.935001 0 1.291751l7.11094 7.11188-7.1114 7.11137c-.35673.3568-.35673.935 0 1.2918.1786.1786.412.2677.64588.2677s.46728-.0891.64587-.2677l7.75725-7.7573c.3572-.35675.3572-.93502.0005-1.29175z" fill="#8857c8"/></svg>

<svg width="18" height="18" viewBox="0 0 18 18" fill="none" xmlns="http://www.w3.org/2000/svg">
<path d="M14.2355 8.26065L6.47821 0.502899C6.12146 0.146169 5.54319 0.146169 5.18646 0.502899C4.82973 0.85963 4.82973 1.4379 5.18646 1.79465L12.2974 8.90653L5.186 16.0179C4.82927 16.3747 4.82927 16.9529 5.186 17.3097C5.3646 17.4883 5.598 17.5774 5.83188 17.5774C6.06576 17.5774 6.29916 17.4883 6.47775 17.3097L14.235 9.5524C14.5922 9.19565 14.5922 8.61738 14.2355 8.26065Z" fill="#8857C8"/>
</svg>
